!!!COM: Bach, Johann Sebastian
!!!OTL: Es ist das Heil uns kommen her
!!!ONM: No. 290
!!!OCL: Erk
!!!YOE: Riemenschneider, Albert
!!!OPR: 371 Harmonized Chorales and 69 Chorale Melodies with Figured Bass
!!!OPT: Bach Chorale Harmonizations
**kern	**kern	**kern	**kern
! bass	! tenor	! alto	! soprano
*M4/4	*M4/4	*M4/4	*M4/4
*E:	*E:	*E:	*E:
4E	4e	4g#	4b
=1	=1	=1	=1
4E	4B	8f#	4b
.	.	8g#	.
4D#	4f#	4a	4b
4E	4e	8g#	8b
.	.	8a	8cc#
4GG#	4e	4b	4ddn
=2	=2	=2	=2
4AA	8e	8b	4cc#
.	8f#	8a	.
8BB	4gn	8dn	4b
8C#	.	8e	.
4Dn;	4dn;	4f#;	4a;
4D#	4B	4f#	8b
.	.	.	8a
=3	=3	=3	=3
4.E	8B	4e	8g#
.	8A	.	8f#
.	4G#	4B	8e
8D#	.	.	8f#
8C#	4c#	4e	4g#
8D#	.	.	.
8E	4F#	4c#	4a#
8F#	.	.	.
=4	=4	=4	=4
8D#	8F#	4.f#	4b
8BB	8B	.	.
4F#	4A#	.	4cc#
.	.	8e	.
4BB;	4F#;	4d#;	4b;
!! Repeat from the beginning.
4E	4e	4g#	4b
=1	=1	=1	=1
4E	4B	8f#	4b
.	.	8g#	.
4D#	4f#	4a	4b
4E	4e	8g#	8b
.	.	8a	8cc#
4GG#	4e	4b	4ddn
=2	=2	=2	=2
4AA	8e	8b	4cc#
.	8f#	8a	.
8BB	4gn	8dn	4b
8C#	.	8e	.
4Dn;	4dn;	4f#;	4a;
4D#	4B	4f#	8b
.	.	.	8a
=3	=3	=3	=3
4.E	8B	4e	8g#
.	8A	.	8f#
.	4G#	4B	8e
8D#	.	.	8f#
8C#	4c#	4e	4g#
8D#	.	.	.
8E	4F#	4c#	4a#
8F#	.	.	.
=4	=4	=4	=4
8D#	8F#	4.f#	4b
8BB	8B	.	.
4F#	4A#	.	4cc#
.	.	8e	.
4BB;	4F#;	4d#;	4b;
!! Continuing.
8E	4G#	8e	4b
8D#	.	8f#	.
=5	=5	=5	=5
4C#	4c#	8g#	4ee
.	.	8a#	.
4BB	8d#	4b	4dd#
.	8e	.	.
8F#	4f#	8a#	4cc#
8G#	.	8g#	.
8An	4B	4f#	4dd#
8F#	.	.	.
=6	=6	=6	=6
8g#	4B	8b	8ee
8E	.	8g#	8dd#
4F#	8f#	4a#	4cc#
.	8e	.	.
4BB;	4d#;	4f#;	4b;
8E	4e	8g#	4b
8F#	.	8an	.
=7	=7	=7	=7
8G#	8B	8b	4ee
8A	8c#	8a	.
4B	4dn	8g#	4b
.	.	8f#	.
8B	8c#	8e#	4cc#
8A	8d#	8f#	.
8G#	8e#	8g#	8g#
8F#	8f#	8c#	8a
=8	=8	=8	=8
4E#	8g#	8c#	4b
.	8c#	8g#	.
4F#	4c#	8g#	4a
.	.	8f#	.
4C#;	4c#;	8f#	4g#;
.	.	8e#;	.
8c#	4c#	4e#	4g#
8B	.	.	.
=9	=9	=9	=9
8A	8c#	8f#	8f#
8G#	8B	8en	8g#
4F#	4A	8d#	4a
.	.	8c#	.
8G#	4e	8B	4g#
8A	.	8c#	.
4B	8B	4d#	4f#
.	8A	.	.
=10	=10	=10	=10
8B	4Gn	4e	4c#
8A#	.	.	.
4B	8F#	4B	4d#
.	8An	.	.
4E;	4G#;	4B;	4e;
==	==	==	==
*-	*-	*-	*-
!!!CDT: 1685/3//-1750/7/28
!!!OCY: Deutschland
!!!AGN: chorale
!!!AST: Baroque
!!!AIN: vox
!!!YOY: 1941
!!!PPP: New York; London
!!!PPR: G. Schirmer
!!!ENC: David Huron
!!!EED: David Huron
!!!YEN: United States of America
!!!YER: 1992
!!!YEC: Copyright 1992 David Huron
!!!YEM: Rights to all derivative electronic formats reserved.
!!!YER: March 20, 1996
!!!AMT: simple quadruple
!!!EEV: 1.1
